X: 182
T: Polska efter Karns-Hans Hansson
S: efter Karns-Hans Hansson
O: Dalarna, Orsa
R: Polska
Z: Hkan Lidn, 2008-09-28
M: 9/8
L: 1/4
K: D
b b g/b/ a3/2 | e a/-a b/ a g/ | g f/g/ f/e/ d c/ | B b g/b/ a3/2 | 
e a/-a b/ a g/ | g/ f f3 :: f d/c/ d/e/ f f/ | f d g b3/2- | b a f a g/ | 
e d c A3/2 | f d/c/ d/e/ f f/ | f d g b3/2- | b a f a g/ | e/c d3 :|]
